X: 7254
T:Hunting the Hare
R:Set Dance
O:Ireland
M:2/4
L:1/8
K:D
d2 D2|F>G A2|B2 e>d|c>B (3ABc|\
d2 D2|F>G A2|B2 e>c |1 d2 (3ABc :|2 d3||\
e|\
f>e d2|f>e d>e|f>e f>g|f>e d2|\
e2 c>d|e2 (3Ace|g2 f2|e2 (3ABc|\
d2 D2|F>G A2|B2 e>d|c>B (3ABc|\
d2 D2|F>G A2|B2 e>c|d4||
